modules/feathericon/icons/camera.svg

<?xml version="1.0" encoding="UTF-8"?>
<svg width="12px" height="11px" viewBox="0 0 12 11" version="1.1" xmlns="http://www.w3.org/2000/svg" xmlns:xlink="http://www.w3.org/1999/xlink">
    <!-- Generator: sketchtool 48.1 (47250) - http://www.bohemiancoding.com/sketch -->
    <title>camera</title>
    <desc>Created with sketchtool.</desc>
    <defs></defs>
    <g id="devices" stroke="none" stroke-width="1" fill="none" fill-rule="evenodd">
        <g id="camera" fill="#000000">
            <path d="M11,1 C9.37636716,1 9,1 9,1 L8,5.68434189e-14 L4,5.68434189e-14 L3,1 C3,1 2.00650908,1 1,1 C-5.80503527e-14,1 6.28118542e-13,2 6.82121026e-13,2 L6.82121026e-13,10 C6.82121026e-13,10 6.96304125e-13,11 1,11 L11,11 C12,11 12,10 12,10 L12,2 C12,1.95110869 12,1 11,1 Z M9,2 L11,2 L11,3 L9,3 L9,2 Z M6,9 C7.65685425,9 9,7.65685425 9,6 C9,4.34314575 7.65685425,3 6,3 C4.34314575,3 3,4.34314575 3,6 C3,7.65685425 4.34314575,9 6,9 Z M6,8 C7.1045695,8 8,7.1045695 8,6 C8,4.8954305 7.1045695,4 6,4 C4.8954305,4 4,4.8954305 4,6 C4,7.1045695 4.8954305,8 6,8 Z" id="Shape"></path>
        </g>
    </g>
</svg>

<svg width="12" height="11" xmlns="http://www.w3.org/2000/svg"><path d="M11 1H9L8 0H4L3 1H1C0 1 0 2 0 2v8s0 1 1 1h10c1 0 1-1 1-1V2c0-.049 0-1-1-1zM9 2h2v1H9V2zM6 9a3 3 0 1 0 0-6 3 3 0 0 0 0 6zm0-1a2 2 0 1 0 0-4 2 2 0 0 0 0 4z" fill="#000" fill-rule="evenodd"/></svg>
